X:1
T:Babe of Bethlehem
M:6/8
L:1/8
K:G
z5B, | E2E(FE)D | E2EF2A | 
w:Ye na tions-all,_ on you I call, Come
B2d(BA)F | (E2D)B,2B, | E2E(FE)D |
w:hear this de-*cla-ra-*tion, And don't re-fuse_this
E2EF2A | B2d(BA)F | E3E2B
w:glo-rious news, Of Je-sus and_ sal-va-tion. To
B2(B/^c/)d2A | B2(B/^c/)d2d | e2B(BA)F |
w:roy-al_ Jews came first the_ news Of Christ the great_Mes
(E2D)B,2B, |E2E(FE)D |E2EF2A |
w:si-*ah, As was fore-told_ by pro-phets old, I
B2d(BA)F | E3E3 | z6 ||
w:sa-iah, Je-*re-mi-ah.